X:37
T:Corrimony's Strathspey
C:R. Petrie
S:Petrie's Second Collection of Strathspey Reels and Country Dances &c.
Z:Steve Wyrick , 6/5/04
N:Petrie's Second Collection, page 13
L:1/8
M:C
R:Strathspey
K:G
B|A<DA>F d>FAF D>FG>B |A<DA>F d<FA>B|d>fe>g      fdd:|
g|f2 d>f g>ef<d|e>df>d g<e=c<e|f2d>f  g<ef<d|e/e/e e/e/e fddg|
  f2 d>f g<ef<d|e>df<d g=ceg  |f<ae<f d>ef<d|A<FA>g      fdd|]
